X:1
T:Pueri Hebraeorum
T:Tomas Luis de Victoria
T:Source :  After an anonymous 1840 choirbook (Rome) containing passion music. Editor : André Vierendeels (14/05/17)
T:Notes : Original clefs :  C1, C3, C4 F4 Editorial accidentals above the staff Original note values have been halved First publication: Rome 1585 (?)
T:Pueri Hebraeorum
T:(Antiphona secunda)
T:©
T:©
T:©
T:©
T:©
C:Tomas Luis de Victoria
Z:©
%%score [ 1 2 3 4 ]
L:1/8
Q:1/4=120
M:2/2
K:C
V:1 treble nm="Soprano" snm="S"
V:2 treble nm="Alto" snm="A"
V:3 treble-8 nm="Tenor 1" snm="T 1"
V:4 treble-8 nm="Tenor 2" snm="T 2"
V:1
 z8 | z4 c4- | c2 c2 A4 | G4 c4- | c2 c2 dcde | f2 c2 f4- | f4 e2 c2- | c2 c2 A4 | G4 c4- | %9
w: |Pu-|* e- ri|_ He-|* brae- o- * * *||* rum, pu-|* e- ri|_ He-|
 c2 c2 d4 | e2 cd ef g2- | g2 ^f2 g3 =f | ed e3 dcB | A4 G2 B2 | c2 d2 e2 f2 | g8 | e2 e3 e e2 | %17
w: * brae- o-|||||||rum, ve- sti- men-|
 d2 c4 B2- | B2 A4 G2- | G2 G2 AGAB | c4 d4 | G4 z2 G2 | A2 B2 c4 | B8 | z4 z2 G2- | G2 G2 c4 | %26
w: ta pro- ster-|* ne- bant|_ in vi- * * *||a, in|vi- * *|a,|et|_ cla- ma-|
 c2 B2 A3 G/A/ | B6 AG | A3 B c4 | G8 | z2 d4 d2 | g4 g2 ^f2 | g3 f ed c2- | c2 B2 c2 e2 | %34
w: bant di- cen- * *|||tes,|et cla-|ma- bant di-|cen- * * * *|* * trs: Ho-|
 f4 e2 e2- | e2 e2 f3 e | d2 c2 B2 c2- | c2 B2 c4 | G8 | A8 | B4 B2 B2 | c4 G2 c2 | c2 d2 e4 | %43
w: san- na fi-|* li- o _|_ _ Da- *|* * vid,|be-|ne-|di- ctus qui|ve- nit in|no- mi- ne|
 c2 d2 e2 f2 | g6 g2 | e4 z4 | z4 c4- | c4 d4- | d4 e4 | e2 e2 d4- | d4 B2 B2 | B2 B2 c2 e2 | %52
w: Do- * * *|* mi-|ni,|be-|* ne|_ di-|ctus qui ve-|* nit in|no- mi- ne, in|
 e2 e2 f3 e | d2 c2 B2 c2- | c2 B2 c2 c2 | c2 c2 c4 | c8- | c6 c2 | !fermata!c8 |] %59
w: no- mi- ne _|Do- * * *|* mi- ni, in|no- mi- ne|Do-|* mi-|ni.|
V:2
 F6 F2 | D4 C4 | F2 E2 F4- | F2 ED EF G2 | C2 c2 c2 B2 | AGAB c2 A2- | AGAF G4 | A2 F4 F2 | D4 C4 | %9
w: Pu- e-|ri _|He- brae- o-||rum, He- brae- o-|||rum, pu- e-|ri _|
 F6 F2 | G2 A2 GFED | EC c4 BA | G4 G4 | z4 z2 G2 | A2 B2 c4- | c2 BA B4 | c2 c3 c c2 | B2 A4 G2- | %18
w: He- brae-|o- * * * * *||* rum,|He-|brae- o- *||rum, ve- sti- men-|ta pro- ster-|
 G2 F4 E2- | E2 E2 FEFG | AGGF/E/ F4 | E2 C2 E3 D | EF G4 ^F2 | G8- | G8 | z2 C4 C2 | G4 G2 ^F2 | %27
w: * ne- bant|_ in vi- * * *||a, in vi- *||a,|_|et cla-|ma- bant di-|
 G3 F E4 | D4 E4 | z2 c4 BA | B2 A2 B4- | B2 AG A4 | G2 D2 G4- | G4 E2 G2 | A4 G2 E2 | G4 A2 A2- | %36
w: cen- * *|* tes,|di- * *|cen- * *||tes, di- cen-|* tes: Ho-|san- na, Ho-|san- na fi-|
 A2 A2 G2 F2 | G4 G4 | z8 | C8 | D8 | E4 E2 E2 | F4 C2 G2 | A2 B2 c2 c2- | c2 BA B2 B2 | c4 G4- | %46
w: * li- o _|Da- vid,||be-|ne|di- ctus qui|ve- nit in|no- mi- ne Do-|* * * * mi-|ni, be-|
 G4 A4- | A4 B4 | B2 B2 c4- | c2 B2 A4- | A4 G4 | z2 G2 G2 G2 | C2 c2 c2 c2 | A4 G4- | %54
w: * ne-|* di-|ctus qui ve-||* nit|in no- mi-|ne, in no- mi-|ne Do-|
 G2 G2 E2 G2 | G2 G2 A2 F2- | FE A4 G2 | FEFG A2 A2 | !fermata!G8 |] %59
w: * mi- ni, in|no- mi- ne Do-||* * * * * mi-|ni.|
V:3
 z8 | z8 | z8 | c6 c2 | A4 G4 | c6 c2 | d4 e4 | A3 B cd c2- | c2 B2 edcB | AG c3 BBA | %10
w: |||Pu- e-|ri _|He- brae-|o- *||||
 c2 A2 z2 c2- | c2 c2 d4 | e2 cd ef g2- | g2 ^f2 g3 =f | e2 d2 c3 d | e2 dc d4 | c2 g3 g g2 | %17
w: * rum, pu-|* e- ri|He- brae- * * * o-||||rum, ve- sti- men-|
 g2 e2 f2 d2 | e2 c2 d2 B2 | c2 c3 BAG | F2 c4 B2 | c2 G2 c4- | c2 B2 A4 | G2 d4 d2 | e4 e2 d2 | %25
w: ta pro- ster- ne-||bant in _ _ _|vi- * *|a, in vi-||a, et cla-|ma- bant di-|
 e6 dc | d4 z2 d2- | d2 d2 g4 | g2 ^f2 g3 =f | e4 d4- | d4 z2 G2- | G2 G2 d4 | d2 B2 cdec | %33
w: cen- * *|tes, et|_ cla- ma-|bant di- cen- *|* tes,|_ et|_ cla- ma-|bant di- cen- * * *|
 d4 c2 c2 | c4 c4 | z2 c4 c2 | f3 e d2 c2 | d4 c2 e2- | ee e2 d2 e2 | f4 e4 | z2 g2 g2 g2 | %41
w: * tes: Ho-|san- na|fi- li-|o _ _ _|Da- vid, be-|* ne- di- ctus qui|ve- nit|in no- mi-|
 c2 g2 g2 g2 | a4 g3 f | e2 d2 c4 | d6 d2 | c2 e4 d2 | ef g4 ^fe | ^f2 e2 g2 e2 | g3 f g2 a2- | %49
w: ne, in no- mi-|ne Do- *||* mi-|ni, be- ne-|di- * * * *|* * ctus qui|ve- * * *|
 ag g4 ^fe | ^f4 g2 d2 | d2 d2 e2 g2 | g2 g2 a4 | f3 e d2 c2 | d2 d2 c2 e2 | e2 e2 f2 a2- | %56
w: |* nit in|no- mi- ne, in|no- mi- ne|Do- * * *|* mi- ni, in|no- mi- ne Do-|
 ag/f/ e2 f2 g2 | a3 g f4- | f2 e2 !fermata!e4 |] %59
w: ||* mi- ni.|
V:4
 z8 | z8 | z8 | z8 | z8 | F6 F2 | D4 C4 | F6 F2 | G4 A3 G | F3 E D4 | C2 c4 c2 | A4 G4 | c6 c2 | %13
w: |||||Pu- e-|ri _|He- brae-|o- * *||rum, pu- e-|ri _|He- brae-|
 d4 e3 d | c2 B2 A4 | G8 | z2 c3 c c2 | G2 A2 F2 G2 | E2 F2 D2 E2 | C2 C2 F4- | F2 E2 D4 | C8 | %22
w: o- * *||rum,|ve- sti- men-|ta pro- ster- ne-||bant in vi-||a,|
 z8 | z2 G4 G2 | c4 c2 B2 | c3 B A4 | G2 G2 d4 | G4 z4 | z4 z2 C2- | C2 C2 G4 | G2 ^F2 G3 =F | %31
w: |et cla-|ma- bant di-|cen- * *|tes, di- cen-|tes,|et|_ cla- ma-|bant di- cen- *|
 E4 D4 | G4 C4 | G4 C2 C2 | F4 C2 C2 | c4 F2 F2- | F2 F2 G2 A2 | G4 C2 c2- | cc c2 B2 c2 | %39
w: * tes,|di- cen-|* tes: Ho-|san- na, Ho-|san- na fi-|* li- o O|Da- vid, be-|* ne- di- ctus qui|
 F3 G A4 | G8 | z2 c2 c2 c2 | F4 z2 c2 | c2 B2 A4 | G6 G2 | C2 c4 B2 | c3 B A4- | A4 G4 | %48
w: ve- * *|nit|in no- mi-|ne, in|no- mi- ne|Do- mi-|ni, be- ne-|di- * *|* ctus,|
 z2 G2 c4- | c4 d4- | d4 G2 G2 | G2 G2 C2 c2 | c2 c2 F4- | F4 G4- | G2 G2 C2 c2 | c2 c2 F4 | %56
w: qui ve-||* nit in|no- mi- ne, in|no- mi- ne|_ Do-|* mi- ni, in|no- mi- ne|
 z2 A3 G/F/ E2 | F6 F2 | !fermata!C8 |] %59
w: Do- * * *|* mi-|ni.|

